; generated by SuperSlicer 2.3.55 on 2021-04-27 at 06:23:09 UTC


;
;

;
;
; 

; external perimeters extrusion width = 0.42mm
; perimeters extrusion width = 0.44mm
; infill extrusion width = 0.44mm
; solid infill extrusion width = 0.44mm
; top infill extrusion width = 0.40mm
; first layer extrusion width = 0.56mm

; object:{"name":"ringing_tower","id":"ringing_tower.stl id:0 copy 0","object_center":[165.000000,162.500000,0.000000],"boundingbox_center":[165.000000,162.500000,30.000000],"boundingbox_size":[120.000000,120.000000,60.000000]}
; plater:{"center":[165.000000,162.500000,0.000000],"boundingbox_center":[165.000000,162.500000,30.000000],"boundingbox_size":[120.000000,120.000000,60.000000]}

;TYPE:Custom
G90 ; use absolute coordinates
M83 ; extruder relative mode
M104 S150 ; set extruder temp for auto bed leveling
M140 S70 ; set bed temp
M190 S70 ; wait for bed temp
M104 S240 ; set extruder temp
M109 S240 ; wait for extruder temp
START_PRINT BED=70
M107
G21 ; set units to millimeters
G90 ; use absolute coordinates
M82 ; use absolute distances for extrusion
G92 E0
; Filament gcode
;LAYER_CHANGE
;Z:0.2
;HEIGHT:0.2
;BEFORE_LAYER_CHANGE
;0.2


G1 E-0.80000 F3600.000
G1 Z0.200000 F9000.000
;AFTER_LAYER_CHANGE
;0.2
G92 E0
G1 X103.388 Y100.918
G1 E0.80000 F2400.000
;TYPE:Skirt
;WIDTH:0.56
G1 F1200.000
G1 X104.120 Y100.420 E0.83806
G1 X104.987 Y100.241 E0.87613
G1 X225.004 Y100.241 E6.03629
G1 X225.796 Y100.386 E6.07091
G1 X226.487 Y100.800 E6.10552
G1 X226.988 Y101.429 E6.14014
G1 X227.238 Y102.195 E6.17475
G1 X227.254 Y110.645 E6.53807
G1 X227.063 Y111.419 E6.57237
G1 X226.612 Y112.082 E6.60683
G1 X114.519 Y224.171 E13.42249
G1 X113.881 Y224.580 E13.45506
G1 X113.140 Y224.754 E13.48779
G1 X104.989 Y224.759 E13.83825
G1 X104.139 Y224.588 E13.87553
G1 X103.418 Y224.112 E13.91266
G1 X102.917 Y223.373 E13.95104
G1 X102.741 Y222.500 E13.98934
G1 X102.741 Y102.489 E19.14926
G1 X102.912 Y101.639 E19.18654
G1 X103.355 Y100.968 E19.22109
G92 E0
G1 E-0.56000 F3600.000
;WIPE_START
G1 F7200.000
G1 X103.745 Y100.689 E-0.78800
;WIPE_END
G1 E-0.80000 F3600.000
G1 X135.235 Y107.341 F9000.000
G1 E0.00000 F2400.000
G1 F1200.000
G1 X138.156 Y103.169 E0.21899
G1 X141.078 Y107.341 E0.43797
G1 X135.295 Y107.341 E0.68660
G92 E0
G1 E-0.56000 F3600.000
;WIPE_START
G1 F7200.000
G1 X135.566 Y106.946 E-0.78800
;WIPE_END
G1 E-0.80000 F3600.000
G1 X117.295 Y114.795 F9000.000
G1 E0.00000 F2400.000
G1 F1200.000
G1 X117.295 Y145.210 E1.30770
G1 X117.163 Y145.940 E1.33958
G1 X116.871 Y146.722 E1.37548
G1 X116.492 Y147.359 E1.40737
G1 X115.795 Y148.162 E1.45307
G1 X115.795 Y150.709 E1.56259
G1 X116.492 Y151.512 E1.60829
G1 X116.871 Y152.149 E1.64017
G1 X117.163 Y152.931 E1.67607
G1 X117.295 Y153.661 E1.70795
G1 X117.295 Y179.339 E2.81199
G1 X117.163 Y180.069 E2.84387
G1 X116.871 Y180.851 E2.87977
G1 X116.492 Y181.488 E2.91165
G1 X115.795 Y182.291 E2.95735
G1 X115.795 Y184.838 E3.06688
G1 X116.492 Y185.641 E3.11257
G1 X116.871 Y186.278 E3.14446
G1 X117.163 Y187.060 E3.18036
G1 X117.295 Y187.790 E3.21224
G1 X117.295 Y223.330 E4.74030
G1 X116.665 Y224.850 E4.81105
G1 X115.350 Y226.165 E4.89102
G1 X113.830 Y226.795 E4.96177
G1 X104.170 Y226.795 E5.37710
G1 X102.650 Y226.165 E5.44786
G1 X101.335 Y224.850 E5.52782
G1 X100.705 Y223.330 E5.59858
G1 X100.705 Y149.411 E8.77675
G1 X100.942 Y148.442 E8.81964
G1 X101.461 Y147.445 E8.86797
G1 X102.119 Y146.695 E8.91086
G1 X105.705 Y144.184 E9.09909
G1 X105.705 Y141.156 E9.22928
G1 X102.119 Y138.645 E9.41751
G1 X101.461 Y137.895 E9.46040
G1 X100.942 Y136.898 E9.50873
G1 X100.705 Y135.929 E9.55162
G1 X100.705 Y101.670 E11.02458
G1 X101.335 Y100.150 E11.09534
G1 X102.650 Y98.835 E11.17530
G1 X104.170 Y98.205 E11.24606
G1 X178.089 Y98.205 E14.42423
G1 X179.058 Y98.442 E14.46712
G1 X180.055 Y98.961 E14.51545
G1 X180.805 Y99.619 E14.55834
G1 X183.316 Y103.205 E14.74657
G1 X186.344 Y103.205 E14.87676
G1 X188.855 Y99.619 E15.06499
G1 X189.605 Y98.961 E15.10788
G1 X190.602 Y98.442 E15.15621
G1 X191.571 Y98.205 E15.19910
G1 X225.830 Y98.205 E16.67206
G1 X227.350 Y98.835 E16.74282
G1 X228.665 Y100.150 E16.82278
G1 X229.295 Y101.670 E16.89354
G1 X229.295 Y111.330 E17.30887
G1 X228.665 Y112.850 E17.37962
G1 X227.350 Y114.165 E17.45959
G1 X225.830 Y114.795 E17.53034
G1 X172.583 Y114.795 E19.81973
G1 X171.783 Y114.636 E19.85476
G1 X170.936 Y114.285 E19.89422
G1 X170.258 Y113.832 E19.92926
G1 X169.721 Y113.295 E19.96192
G1 X168.279 Y113.295 E20.02390
G1 X167.742 Y113.832 E20.05657
G1 X167.064 Y114.285 E20.09160
G1 X166.217 Y114.636 E20.13106
G1 X165.417 Y114.795 E20.16609
G1 X117.355 Y114.795 E22.23254
G92 E0
G1 E-0.56000 F3600.000
;WIPE_START
G1 F7200.000
G1 X117.354 Y115.275 E-0.78800
;WIPE_END
G1 E-0.80000 F3600.000
G1 X135.235 Y107.341 F9000.000
G1 E0.00000 F2400.000
G1 F1200.000
G1 X138.156 Y103.169 E0.21899
G1 X141.078 Y107.341 E0.43797
G1 X135.295 Y107.341 E0.68660
G92 E0
G1 E-0.56000 F3600.000
;WIPE_START
G1 F7200.000
G1 X135.566 Y106.946 E-0.78800
;WIPE_END
G1 E-0.80000 F3600.000
G1 X116.778 Y114.278 F9000.000
G1 E0.00000 F2400.000
G1 F1200.000
G1 X116.778 Y145.164 E1.32794
G1 X116.663 Y145.802 E1.35584
G1 X116.403 Y146.498 E1.38775
G1 X116.071 Y147.055 E1.41565
G1 X115.278 Y147.969 E1.46766
G1 X115.278 Y150.902 E1.59380
G1 X116.071 Y151.816 E1.64581
G1 X116.403 Y152.374 E1.67371
G1 X116.663 Y153.069 E1.70563
G1 X116.778 Y153.707 E1.73352
G1 X116.778 Y179.293 E2.83357
G1 X116.663 Y179.931 E2.86147
G1 X116.403 Y180.626 E2.89338
G1 X116.071 Y181.184 E2.92128
G1 X115.278 Y182.098 E2.97329
G1 X115.278 Y185.031 E3.09943
G1 X116.071 Y185.945 E3.15144
G1 X116.403 Y186.502 E3.17934
G1 X116.663 Y187.198 E3.21126
G1 X116.778 Y187.836 E3.23915
G1 X116.778 Y223.227 E4.76079
G1 X116.227 Y224.557 E4.82270
G1 X115.057 Y225.727 E4.89382
G1 X113.727 Y226.278 E4.95574
G1 X104.273 Y226.278 E5.36222
G1 X102.943 Y225.727 E5.42413
G1 X101.773 Y224.557 E5.49525
G1 X101.222 Y223.227 E5.55716
G1 X101.222 Y149.473 E8.72823
G1 X101.429 Y148.625 E8.76576
G1 X101.891 Y147.739 E8.80873
G1 X102.466 Y147.083 E8.84626
G1 X106.222 Y144.453 E9.04338
G1 X106.222 Y140.887 E9.19672
G1 X102.466 Y138.257 E9.39384
G1 X101.891 Y137.601 E9.43137
G1 X101.429 Y136.714 E9.47434
G1 X101.222 Y135.866 E9.51186
G1 X101.222 Y101.773 E10.97773
G1 X101.773 Y100.443 E11.03964
G1 X102.943 Y99.273 E11.11076
G1 X104.273 Y98.722 E11.17267
G1 X178.027 Y98.722 E14.34374
G1 X178.875 Y98.929 E14.38127
G1 X179.761 Y99.391 E14.42423
G1 X180.417 Y99.966 E14.46176
G1 X183.047 Y103.722 E14.65888
G1 X186.613 Y103.722 E14.81223
G1 X189.243 Y99.966 E15.00935
G1 X189.899 Y99.391 E15.04688
G1 X190.786 Y98.929 E15.08984
G1 X191.634 Y98.722 E15.12737
G1 X225.727 Y98.722 E16.59323
G1 X227.057 Y99.273 E16.65515
G1 X228.227 Y100.443 E16.72627
G1 X228.778 Y101.773 E16.78818
G1 X228.778 Y111.227 E17.19466
G1 X228.227 Y112.557 E17.25657
G1 X227.057 Y113.727 E17.32769
G1 X225.727 Y114.278 E17.38960
G1 X172.633 Y114.278 E19.67238
G1 X171.934 Y114.139 E19.70303
G1 X171.180 Y113.827 E19.73811
G1 X170.588 Y113.431 E19.76877
G1 X169.935 Y112.778 E19.80845
G1 X168.065 Y112.778 E19.88885
G1 X167.412 Y113.431 E19.92853
G1 X166.820 Y113.827 E19.95919
G1 X166.066 Y114.139 E19.99427
G1 X165.367 Y114.278 E20.02492
G1 X116.838 Y114.278 E22.11142
G92 E0
G1 E-0.56000 F3600.000
;WIPE_START
G1 F7200.000
G1 X116.837 Y114.758 E-0.78800
;WIPE_END
G1 E-0.80000 F3600.000
G1 X135.235 Y107.341 F9000.000
G1 E0.00000 F2400.000
G1 F1200.000
G1 X138.156 Y103.169 E0.21899
G1 X141.078 Y107.341 E0.43797
G1 X135.295 Y107.341 E0.68660
G92 E0
G1 E-0.56000 F3600.000
;WIPE_START
G1 F7200.000
G1 X135.566 Y106.946 E-0.78800
;WIPE_END
G1 E-0.80000 F3600.000
G1 X116.261 Y113.761 F9000.000
G1 E0.00000 F2400.000
G1 F1200.000
G1 X116.261 Y145.117 E1.34818
G1 X116.162 Y145.665 E1.37209
G1 X115.935 Y146.273 E1.40002
G1 X115.651 Y146.751 E1.42393
G1 X114.761 Y147.775 E1.48226
G1 X114.761 Y151.096 E1.62501
G1 X115.651 Y152.120 E1.68334
G1 X115.935 Y152.598 E1.70725
G1 X116.162 Y153.206 E1.73518
G1 X116.261 Y153.754 E1.75909
G1 X116.261 Y179.246 E2.85515
G1 X116.162 Y179.794 E2.87906
G1 X115.935 Y180.402 E2.90699
G1 X115.651 Y180.880 E2.93091
G1 X114.761 Y181.904 E2.98923
G1 X114.761 Y185.225 E3.13198
G1 X115.651 Y186.249 E3.19031
G1 X115.935 Y186.727 E3.21422
G1 X116.162 Y187.335 E3.24215
G1 X116.261 Y187.883 E3.26606
G1 X116.261 Y223.124 E4.78129
G1 X115.789 Y224.265 E4.83436
G1 X114.765 Y225.289 E4.89663
G1 X113.624 Y225.761 E4.94970
G1 X104.376 Y225.761 E5.34734
G1 X103.235 Y225.289 E5.40041
G1 X102.211 Y224.265 E5.46268
G1 X101.739 Y223.124 E5.51575
G1 X101.739 Y149.536 E8.67972
G1 X101.917 Y148.809 E8.71188
G1 X102.321 Y148.033 E8.74949
G1 X102.814 Y147.471 E8.78165
G1 X106.739 Y144.722 E8.98767
G1 X106.739 Y140.617 E9.16416
G1 X102.814 Y137.869 E9.37017
G1 X102.321 Y137.307 E9.40234
G1 X101.917 Y136.531 E9.43995
G1 X101.739 Y135.804 E9.47211
G1 X101.739 Y101.876 E10.93087
G1 X102.211 Y100.735 E10.98394
G1 X103.235 Y99.711 E11.04621
G1 X104.376 Y99.239 E11.09928
G1 X177.964 Y99.239 E14.26325
G1 X178.691 Y99.417 E14.29542
G1 X179.467 Y99.821 E14.33302
G1 X180.029 Y100.314 E14.36519
G1 X182.778 Y104.239 E14.57120
G1 X186.883 Y104.239 E14.74769
G1 X189.631 Y100.314 E14.95371
G1 X190.193 Y99.821 E14.98587
G1 X190.969 Y99.417 E15.02348
G1 X191.696 Y99.239 E15.05565
G1 X225.624 Y99.239 E16.51441
G1 X226.765 Y99.711 E16.56747
G1 X227.789 Y100.735 E16.62975
G1 X228.261 Y101.876 E16.68281
G1 X228.261 Y111.124 E17.08045
G1 X227.789 Y112.265 E17.13352
G1 X226.765 Y113.289 E17.19580
G1 X225.624 Y113.761 E17.24886
G1 X172.684 Y113.761 E19.52503
G1 X172.085 Y113.642 E19.55130
G1 X171.425 Y113.369 E19.58200
G1 X170.917 Y113.029 E19.60828
G1 X170.149 Y112.261 E19.65498
G1 X167.851 Y112.261 E19.75380
G1 X167.083 Y113.029 E19.80050
G1 X166.575 Y113.369 E19.82678
G1 X165.915 Y113.642 E19.85747
G1 X165.316 Y113.761 E19.88375
G1 X116.321 Y113.761 E21.99029
G92 E0
G1 E-0.56000 F3600.000
;WIPE_START
G1 F7200.000
G1 X116.320 Y114.241 E-0.78800
;WIPE_END
G1 E-0.80000 F3600.000
G1 X135.235 Y107.341 F9000.000
G1 E0.00000 F2400.000
G1 F1200.000
G1 X138.156 Y103.169 E0.21899
G1 X141.078 Y107.341 E0.43797
G1 X135.295 Y107.341 E0.68660
G92 E0
G1 E-0.56000 F3600.000
;WIPE_START
G1 F7200.000
G1 X135.566 Y106.946 E-0.78800
;WIPE_END
G1 E-0.80000 F3600.000
G1 X115.744 Y113.244 F9000.000
G1 E0.00000 F2400.000
G1 F1200.000
G1 X115.744 Y145.071 E1.36842
G1 X115.662 Y145.527 E1.38835
G1 X115.467 Y146.049 E1.41229
G1 X115.230 Y146.447 E1.43222
G1 X114.244 Y147.582 E1.49686
G1 X114.244 Y151.289 E1.65622
G1 X115.230 Y152.424 E1.72086
G1 X115.467 Y152.822 E1.74079
G1 X115.662 Y153.344 E1.76473
G1 X115.744 Y153.800 E1.78466
G1 X115.744 Y179.200 E2.87673
G1 X115.662 Y179.656 E2.89666
G1 X115.467 Y180.178 E2.92061
G1 X115.230 Y180.576 E2.94053
G1 X114.244 Y181.711 E3.00517
G1 X114.244 Y185.418 E3.16454
G1 X115.230 Y186.553 E3.22918
G1 X115.467 Y186.951 E3.24910
G1 X115.662 Y187.473 E3.27305
G1 X115.744 Y187.929 E3.29298
G1 X115.744 Y223.021 E4.80179
G1 X115.350 Y223.972 E4.84601
G1 X114.472 Y224.850 E4.89944
G1 X113.521 Y225.244 E4.94366
G1 X104.479 Y225.244 E5.33246
G1 X103.528 Y224.850 E5.37668
G1 X102.650 Y223.972 E5.43011
G1 X102.256 Y223.021 E5.47433
G1 X102.256 Y149.598 E8.63120
G1 X102.404 Y148.992 E8.65800
G1 X102.751 Y148.327 E8.69025
G1 X103.162 Y147.858 E8.71705
G1 X107.256 Y144.991 E8.93196
G1 X107.256 Y140.348 E9.13160
G1 X103.162 Y137.481 E9.34651
G1 X102.751 Y137.013 E9.37331
G1 X102.404 Y136.347 E9.40556
G1 X102.256 Y135.742 E9.43236
G1 X102.256 Y101.979 E10.88402
G1 X102.650 Y101.028 E10.92824
G1 X103.528 Y100.150 E10.98167
G1 X104.479 Y99.756 E11.02589
G1 X177.902 Y99.756 E14.18276
G1 X178.508 Y99.904 E14.20956
G1 X179.173 Y100.251 E14.24181
G1 X179.642 Y100.662 E14.26861
G1 X182.509 Y104.756 E14.48352
G1 X187.152 Y104.756 E14.68316
G1 X190.019 Y100.662 E14.89807
G1 X190.487 Y100.251 E14.92487
G1 X191.153 Y99.904 E14.95712
G1 X191.758 Y99.756 E14.98392
G1 X225.521 Y99.756 E16.43558
G1 X226.472 Y100.150 E16.47980
G1 X227.350 Y101.028 E16.53323
G1 X227.744 Y101.979 E16.57745
G1 X227.744 Y111.021 E16.96625
G1 X227.350 Y111.972 E17.01047
G1 X226.472 Y112.850 E17.06390
G1 X225.521 Y113.244 E17.10812
G1 X172.735 Y113.244 E19.37768
G1 X172.236 Y113.145 E19.39957
G1 X171.670 Y112.910 E19.42589
G1 X171.247 Y112.627 E19.44779
G1 X170.363 Y111.744 E19.50151
G1 X167.637 Y111.744 E19.61875
G1 X166.753 Y112.627 E19.67247
G1 X166.330 Y112.910 E19.69436
G1 X165.764 Y113.145 E19.72068
G1 X165.265 Y113.244 E19.74258
G1 X115.804 Y113.244 E21.86916
G92 E0
G1 E-0.56000 F3600.000
;WIPE_START
G1 F7200.000
G1 X115.803 Y113.724 E-0.78800
;WIPE_END
G1 E-0.80000 F3600.000
G1 X135.235 Y107.341 F9000.000
G1 E0.00000 F2400.000
G1 F1200.000
G1 X138.156 Y103.169 E0.21899
G1 X141.078 Y107.341 E0.43797
G1 X135.295 Y107.341 E0.68660
G92 E0
G1 E-0.56000 F3600.000
;WIPE_START
G1 F7200.000
G1 X135.566 Y106.946 E-0.78800
;WIPE_END
G1 E-0.80000 F3600.000
G1 X115.227 Y112.727 F9000.000
G1 E0.00000 F2400.000
G1 F1200.000
G1 X115.227 Y145.025 E1.38866
G1 X115.161 Y145.390 E1.40460
G1 X114.998 Y145.824 E1.42456
G1 X114.809 Y146.143 E1.44050
G1 X113.727 Y147.389 E1.51145
G1 X113.727 Y151.482 E1.68743
G1 X114.809 Y152.728 E1.75838
G1 X114.998 Y153.047 E1.77433
G1 X115.161 Y153.482 E1.79429
G1 X115.227 Y153.846 E1.81023
G1 X115.227 Y179.154 E2.89832
G1 X115.161 Y179.518 E2.91426
G1 X114.998 Y179.953 E2.93422
G1 X114.809 Y180.272 E2.95016
G1 X113.727 Y181.518 E3.02111
G1 X113.727 Y185.611 E3.19709
G1 X114.809 Y186.857 E3.26804
G1 X114.998 Y187.176 E3.28399
G1 X115.161 Y187.610 E3.30395
G1 X115.227 Y187.975 E3.31989
G1 X115.227 Y222.919 E4.82228
G1 X114.912 Y223.679 E4.85766
G1 X114.179 Y224.412 E4.90225
G1 X113.419 Y224.727 E4.93763
G1 X104.581 Y224.727 E5.31758
G1 X103.821 Y224.412 E5.35295
G1 X103.088 Y223.679 E5.39754
G1 X102.773 Y222.919 E5.43292
G1 X102.773 Y149.660 E8.58268
G1 X102.892 Y149.176 E8.60413
G1 X103.180 Y148.621 E8.63101
G1 X103.509 Y148.246 E8.65245
G1 X107.773 Y145.261 E8.87625
G1 X107.773 Y140.079 E9.09904
G1 X103.509 Y137.093 E9.32284
G1 X103.180 Y136.719 E9.34428
G1 X102.892 Y136.164 E9.37116
G1 X102.773 Y135.679 E9.39261
G1 X102.773 Y102.081 E10.83716
G1 X103.088 Y101.321 E10.87254
G1 X103.821 Y100.588 E10.91713
G1 X104.581 Y100.273 E10.95251
G1 X177.840 Y100.273 E14.10227
G1 X178.324 Y100.392 E14.12371
G1 X178.879 Y100.680 E14.15060
G1 X179.254 Y101.009 E14.17204
G1 X182.239 Y105.273 E14.39584
G1 X187.421 Y105.273 E14.61862
G1 X190.407 Y101.009 E14.84242
G1 X190.781 Y100.680 E14.86387
G1 X191.336 Y100.392 E14.89075
G1 X191.821 Y100.273 E14.91220
G1 X225.419 Y100.273 E16.35675
G1 X226.179 Y100.588 E16.39213
G1 X226.912 Y101.321 E16.43672
G1 X227.227 Y102.081 E16.47209
G1 X227.227 Y110.919 E16.85204
G1 X226.912 Y111.679 E16.88742
G1 X226.179 Y112.412 E16.93201
G1 X225.419 Y112.727 E16.96739
G1 X172.786 Y112.727 E19.23033
G1 X172.387 Y112.647 E19.24784
G1 X171.915 Y112.452 E19.26978
G1 X171.576 Y112.226 E19.28730
G1 X170.578 Y111.227 E19.34804
G1 X167.422 Y111.227 E19.48370
G1 X166.424 Y112.226 E19.54443
G1 X166.085 Y112.452 E19.56195
G1 X165.613 Y112.647 E19.58389
G1 X165.214 Y112.727 E19.60141
G1 X115.287 Y112.727 E21.74803
G92 E0
G1 E-0.56000 F3600.000
;WIPE_START
G1 F7200.000
G1 X115.286 Y113.207 E-0.78800
;WIPE_END
G1 E-0.80000 F3600.000
G1 X135.235 Y107.341 F9000.000
G1 E0.00000 F2400.000
G1 F1200.000
G1 X138.156 Y103.169 E0.21899
G1 X141.078 Y107.341 E0.43797
G1 X135.295 Y107.341 E0.68660
G92 E0
G1 E-0.56000 F3600.000
;WIPE_START
G1 F7200.000
G1 X135.566 Y106.946 E-0.78800
;WIPE_END
G1 E-0.80000 F3600.000
G1 X114.710 Y112.210 F9000.000
G1 E0.00000 F2400.000
G1 F1200.000
G1 X114.710 Y144.978 E1.40890
G1 X114.530 Y145.600 E1.43672
G1 X114.388 Y145.839 E1.44867
G1 X113.210 Y147.196 E1.52594
G1 X113.210 Y151.675 E1.71853
G1 X114.388 Y153.032 E1.79580
G1 X114.530 Y153.271 E1.80776
G1 X114.710 Y153.893 E1.83558
G1 X114.710 Y179.107 E2.91968
G1 X114.530 Y179.729 E2.94750
G1 X114.388 Y179.968 E2.95946
G1 X113.210 Y181.325 E3.03673
G1 X113.210 Y185.804 E3.22932
G1 X114.388 Y187.161 E3.30658
G1 X114.530 Y187.400 E3.31854
G1 X114.710 Y188.022 E3.34636
